fs/thumb_dislike_24_filled.svg

<svg viewBox="0 0 24 24" fill="none" xmlns="http://www.w3.org/2000/svg" height="1em" width="1em">
  <path d="M15.0556 14.1826C15.5164 15.6096 15.7491 16.8587 15.7491 17.9358C15.7491 20.3345 14.81 22.1832 13.2491 22.1832C12.4493 22.1832 12.1712 21.7335 11.8665 20.6367L11.5968 19.6152C11.4958 19.2565 11.32 18.6457 11.0697 17.7842C11.063 17.7611 11.0532 17.7394 11.0403 17.7193L8.17359 13.2336C7.49554 12.1727 6.49507 11.3572 5.31919 10.907L4.06196 10.4256C3.26859 10.1218 2.80797 9.29217 2.96968 8.45817L3.65584 4.9195C3.82298 4.05751 4.47629 3.3715 5.32909 3.16248L13.5786 1.14055C16.1098 0.520162 18.6682 2.05509 19.3121 4.58042L20.886 10.7531C21.2612 12.2248 20.3723 13.7221 18.9007 14.0973C18.6786 14.1539 18.4504 14.1826 18.2212 14.1826H15.0556Z" fill="#212121"/>
</svg>

<svg viewBox="0 0 24 24" fill="none" xmlns="http://www.w3.org/2000/svg" height="1em" width="1em">
  <path d="M15.056 14.183c.46 1.427.693 2.676.693 3.753 0 2.398-.939 4.247-2.5 4.247-.8 0-1.078-.45-1.383-1.546l-.27-1.022c-.1-.358-.276-.97-.526-1.83a.247.247 0 0 0-.03-.066l-2.866-4.485a5.885 5.885 0 0 0-2.855-2.327l-1.257-.481A1.75 1.75 0 0 1 2.97 8.458l.686-3.538a2.25 2.25 0 0 1 1.673-1.758l8.25-2.021a4.75 4.75 0 0 1 5.733 3.44l1.574 6.172a2.75 2.75 0 0 1-2.665 3.43h-3.165Z" fill="#212121"/>
</svg>
